Simply-Black-Circles/scalable/devices/network-wireless.svg

<svg xmlns="http://www.w3.org/2000/svg" width="48" height="48" viewBox="0 0 12.7 12.7"><path d="M6.34.07a6.29 6.29 0 0 0-6.29 6.3 6.29 6.29 0 0 0 6.3 6.28 6.29 6.29 0 0 0 6.28-6.29A6.29 6.29 0 0 0 6.34.07zm-.01.94a5.4 5.4 0 0 1 5.4 5.4 5.4 5.4 0 0 1-5.4 5.41 5.4 5.4 0 0 1-5.41-5.4A5.4 5.4 0 0 1 6.32 1zm2.64 1.77c-.13 0-.24.1-.24.24v7.18a5.4 5.4 0 0 0 .05-.02 5.4 5.4 0 0 0 .47-.27 5.4 5.4 0 0 0 .43-.31V3.02c0-.14-.1-.24-.23-.24h-.48zM7.54 4.2c-.13 0-.24.1-.24.24v6.23a5.4 5.4 0 0 0 .47-.11 5.4 5.4 0 0 0 .48-.16V4.45c0-.14-.1-.24-.23-.24h-.48zM6.11 5.64c-.13 0-.24.1-.24.23v4.87a5.4 5.4 0 0 0 .46.03 5.4 5.4 0 0 0 .38-.02 5.4 5.4 0 0 0 .12-.01V5.87c0-.13-.11-.23-.24-.23H6.1zM4.68 7.06c-.13 0-.23.11-.23.24v3.12a5.4 5.4 0 0 0 .28.1 5.4 5.4 0 0 0 .52.14 5.4 5.4 0 0 0 .15.02V7.3c0-.13-.1-.24-.24-.24h-.48zM3.25 8.5c-.13 0-.23.1-.23.24v.9a5.4 5.4 0 0 0 .25.2 5.4 5.4 0 0 0 .46.27 5.4 5.4 0 0 0 .24.12V8.73a.24.24 0 0 0-.24-.24h-.48z" stroke-width="3.78" fill="#1a1a1a"/></svg>

<?xml version="1.0" encoding="UTF-8" standalone="no"?>
<svg
   xmlns:dc="http://purl.org/dc/elements/1.1/"
   xmlns:cc="http://creativecommons.org/ns#"
   xmlns:rdf="http://www.w3.org/1999/02/22-rdf-syntax-ns#"
   xmlns:svg="http://www.w3.org/2000/svg"
   xmlns="http://www.w3.org/2000/svg"
   xmlns:sodipodi="http://sodipodi.sourceforge.net/DTD/sodipodi-0.dtd"
   xmlns:inkscape="http://www.inkscape.org/namespaces/inkscape"
   width="48"
   height="48"
   viewBox="0 0 12.7 12.7"
   version="1.1"
   id="svg4"
   sodipodi:docname="network-wireless.svg"
   inkscape:version="0.92.4 (5da689c313, 2019-01-14)">
  <metadata
     id="metadata10">
    <rdf:RDF>
      <cc:Work
         rdf:about="">
        <dc:format>image/svg+xml</dc:format>
        <dc:type
           rdf:resource="http://purl.org/dc/dcmitype/StillImage" />
        <dc:title></dc:title>
      </cc:Work>
    </rdf:RDF>
  </metadata>
  <defs
     id="defs8" />
  <sodipodi:namedview
     pagecolor="#ffffff"
     bordercolor="#666666"
     borderopacity="1"
     objecttolerance="10"
     gridtolerance="10"
     guidetolerance="10"
     inkscape:pageopacity="0"
     inkscape:pageshadow="2"
     inkscape:window-width="1087"
     inkscape:window-height="480"
     id="namedview6"
     showgrid="false"
     inkscape:zoom="4.9166667"
     inkscape:cx="2.1355932"
     inkscape:cy="24"
     inkscape:window-x="0"
     inkscape:window-y="25"
     inkscape:window-maximized="0"
     inkscape:current-layer="svg4" />
  <path
     d="M 6.34,0.07 A 6.29,6.29 0 0 0 0.05,6.37 6.29,6.29 0 0 0 6.35,12.65 6.29,6.29 0 0 0 12.63,6.36 6.29,6.29 0 0 0 6.34,0.07 Z M 6.33,1.01 a 5.4,5.4 0 0 1 5.4,5.4 5.4,5.4 0 0 1 -5.4,5.41 A 5.4,5.4 0 0 1 0.92,6.42 5.4,5.4 0 0 1 6.32,1 Z m 2.64,1.77 c -0.13,0 -0.24,0.1 -0.24,0.24 V 10.2 A 5.4,5.4 0 0 0 8.78,10.18 5.4,5.4 0 0 0 9.25,9.91 5.4,5.4 0 0 0 9.68,9.6 V 3.02 C 9.68,2.88 9.58,2.78 9.45,2.78 Z M 7.54,4.2 C 7.41,4.2 7.3,4.3 7.3,4.44 v 6.23 A 5.4,5.4 0 0 0 7.77,10.56 5.4,5.4 0 0 0 8.25,10.4 V 4.45 C 8.25,4.31 8.15,4.21 8.02,4.21 H 7.54 Z M 6.11,5.64 c -0.13,0 -0.24,0.1 -0.24,0.23 v 4.87 a 5.4,5.4 0 0 0 0.46,0.03 5.4,5.4 0 0 0 0.38,-0.02 5.4,5.4 0 0 0 0.12,-0.01 V 5.87 C 6.83,5.74 6.72,5.64 6.59,5.64 H 6.1 Z M 4.68,7.06 C 4.55,7.06 4.45,7.17 4.45,7.3 v 3.12 a 5.4,5.4 0 0 0 0.28,0.1 5.4,5.4 0 0 0 0.52,0.14 5.4,5.4 0 0 0 0.15,0.02 V 7.3 C 5.4,7.17 5.3,7.06 5.16,7.06 Z M 3.25,8.5 C 3.12,8.5 3.02,8.6 3.02,8.74 v 0.9 a 5.4,5.4 0 0 0 0.25,0.2 5.4,5.4 0 0 0 0.46,0.27 5.4,5.4 0 0 0 0.24,0.12 V 8.73 A 0.24,0.24 0 0 0 3.73,8.49 H 3.25 Z"
     id="path2"
     inkscape:connector-curvature="0"
     style="fill:#1a1a1a;stroke-width:3.77999997" />
</svg>
